tools/download-figma-icons/icons/outlined-medium/danger-electricity.svg

<svg width="25" height="24" viewBox="0 0 25 24" fill="none" xmlns="http://www.w3.org/2000/svg">
<path d="M21.8592 22.5H2.25354C1.42725 22.5 0.751193 22.125 0.300489 21.375C-0.0750979 20.7 -0.0750979 19.875 0.300489 19.2L10.0657 2.625C10.5165 1.875 11.2676 1.5 12.0188 1.5C12.77 1.5 13.5211 1.875 13.9719 2.625L23.7371 19.2C24.1127 19.875 24.1127 20.7 23.7371 21.375C23.3615 22.05 22.6103 22.5 21.8592 22.5ZM11.4179 3.3L1.6526 19.875C1.42725 20.175 1.57748 20.475 1.6526 20.625C1.72772 20.7 1.87795 20.925 2.32866 20.925H21.8592C22.2348 20.925 22.4601 20.7 22.5352 20.625C22.6103 20.55 22.7606 20.25 22.5352 19.875L12.6949 3.3C12.4695 3 12.169 2.925 12.0188 2.925C11.8686 2.925 11.5681 3 11.4179 3.3Z" fill="black"/>
<path d="M14.648 12.6H12.77L14.047 9.675C14.1972 9.375 13.9719 9 13.6714 9H10.5165C10.2911 9 10.1409 9.15 10.0658 9.375L9.08927 14.775C9.01415 15.075 9.2395 15.3 9.53997 15.3H11.5681L10.9672 19.2C10.8921 19.5 11.3428 19.725 11.493 19.425L15.0235 13.35C15.1738 12.975 14.9484 12.6 14.648 12.6Z" fill="black"/>
</svg>

<svg xmlns="http://www.w3.org/2000/svg" width="25" height="24" fill="none" viewBox="0 0 25 24"><path fill="currentColor" d="M21.86 22.5H2.253C1.427 22.5.75 22.125.3 21.375a2.24 2.24 0 0 1 0-2.175l9.766-16.575A2.27 2.27 0 0 1 12.019 1.5c.751 0 1.502.375 1.953 1.125L23.737 19.2a2.24 2.24 0 0 1 0 2.175c-.375.675-1.127 1.125-1.878 1.125M11.417 3.3 1.653 19.875c-.226.3-.076.6 0 .75.075.075.225.3.676.3h19.53c.376 0 .601-.225.676-.3s.226-.375 0-.75L12.695 3.3a.89.89 0 0 0-.676-.375.69.69 0 0 0-.601.375"/><path fill="currentColor" d="M14.648 12.6H12.77l1.277-2.925c.15-.3-.075-.675-.376-.675h-3.154c-.226 0-.376.15-.451.375l-.977 5.4c-.075.3.15.525.451.525h2.028l-.6 3.9c-.076.3.375.525.525.225l3.53-6.075c.15-.375-.075-.75-.375-.75"/></svg>
